static/assets/head_icons_png/woman/yanjing/1038184.svg

<svg xmlns="http://www.w3.org/2000/svg" width="22" height="8"><g transform="translate(-59.8 -29.5)"><radialGradient id="a" gradientUnits="userSpaceOnUse" gradientTransform="matrix(-.00052 .00014 .00035 .00131 71.85 32.95)" spreadMethod="pad" cx="0" cy="0" r="819.2" fx="0" fy="0"><stop offset="0" stop-color="#919688"/><stop offset="1" stop-color="#dedfd6"/></radialGradient><path d="M71.85 31.9l.35.4.25.6v.8l-.35.45-.55-.8-.1-.95q0-.6.3-.6v.05l.1.05" fill="url(#a)"/><path d="M72.05 33.9l.05.15q1.35 2.45 4.45 2.3 1.7-.05 2.6-1.65l.55-1.25.15-.95.75.15-.25.5-.45 1.15-1.15 1.65q-.8.85-2.5.95l-1.8-.3-.2-.05q-1.65-.6-2.45-2.05-.5-1.15-.7-2.55l.5-.15q0 .8.45 2.1" fill="#a4a892"/><linearGradient id="b" gradientUnits="userSpaceOnUse" gradientTransform="matrix(.00696 0 0 .00192 75.45 31)" x1="-819.2" x2="819.2"><stop offset="0" stop-color="#a4a892"/><stop offset=".463" stop-color="#4f5041"/><stop offset="1" stop-color="#a4a892"/></linearGradient><path d="M79.85 32.5v-.05q0-1.45-1.25-1.9-4.85-1.35-6.95.8l-.05.45-.5.15v-.05l-.05-.25-.05-.05-.3.05h-.5v-.4h.5l.45-.15.35-.3.45-.4q1.15-.55 2.3-.8l3.6.15q1.4.35 2 .9l.2.15 1 .55V32l-.45.65-.75-.15" fill="url(#b)"/><linearGradient id="c" gradientUnits="userSpaceOnUse" gradientTransform="matrix(-.00116 .0018 .00069 .00044 79 34.4)" x1="-819.2" x2="819.2"><stop offset="0" stop-color="#a4a892"/><stop offset=".463" stop-color="#fbfbfb"/><stop offset="1" stop-color="#a4a892"/></linearGradient><path d="M77.05 36.85l-.2-.25q2.75-1 3.1-3.9l.3.2q-.55 3-3.2 3.95" fill="url(#c)"/><linearGradient id="d" gradientUnits="userSpaceOnUse" gradientTransform="matrix(.00212 -.00024 -.0001 -.0008 73.55 30.6)" x1="-819.2" x2="819.2"><stop offset="0" stop-color="#a4a892"/><stop offset=".463" stop-color="#fbfbfb"/><stop offset="1" stop-color="#a4a892"/></linearGradient><path d="M76.7 30q-3.55-.45-5.15 1.25L71.3 31q2.25-1.8 5.4-1.3v.3" fill="url(#d)"/><linearGradient id="e" gradientUnits="userSpaceOnUse" gradientTransform="matrix(.00185 .0011 .00044 -.00067 77.6 30.55)" x1="-819.2" x2="819.2"><stop offset="0" stop-color="#a4a892"/><stop offset=".463" stop-color="#fbfbfb"/><stop offset="1" stop-color="#a4a892"/></linearGradient><path d="M80.1 31l-.15.6q-.55-1.5-4.35-1.7v-.25q3.1 0 4.5 1.35" fill="url(#e)"/><path d="M80.15 31.5l.1.05-.1-.05m.8.05H81q-.25.7-.5.6-.3-.1-.3-.6h.75" fill="#545738"/><linearGradient id="f" gradientUnits="userSpaceOnUse" gradientTransform="matrix(.0006 .00107 -.00056 .0003 80.35 31.4)" x1="-819.2" x2="819.2"><stop offset="0" stop-color="#a4a892"/><stop offset=".463" stop-color="#fbfbfb"/><stop offset="1" stop-color="#a4a892"/></linearGradient><path d="M80.95 31.55h-.7q.05-.45.4-.25.35.15.3.25" fill="url(#f)"/><linearGradient id="g" gradientUnits="userSpaceOnUse" gradientTransform="matrix(.00433 .00075 -.00027 .00064 75.85 36.05)" x1="-819.2" x2="819.2"><stop offset="0" stop-color="#a4a892"/><stop offset=".463" stop-color="#fbfbfb"/><stop offset="1" stop-color="#a4a892"/></linearGradient><path d="M78.85 35.35l.25.15q-2.65 2.4-6.65-.1l.2-.15q3.8 2.35 6.2.1" fill="url(#g)"/><linearGradient id="h" gradientUnits="userSpaceOnUse" gradientTransform="matrix(.00052 .00116 -.0005 .00014 72.05 33.45)" x1="-819.2" x2="819.2"><stop offset="0" stop-color="#a4a892"/><stop offset=".463" stop-color="#fbfbfb"/><stop offset="1" stop-color="#a4a892"/></linearGradient><path d="M71.25 32.2l.2.05q.15 1.55 1.35 2.95l-.15.15q-1.1-1.1-1.4-3.15" fill="url(#h)"/><radialGradient id="i" gradientUnits="userSpaceOnUse" gradientTransform="matrix(.00052 .00014 -.00035 .00131 68.95 32.95)" spreadMethod="pad" cx="0" cy="0" r="819.2" fx="0" fy="0"><stop offset="0" stop-color="#919688"/><stop offset="1" stop-color="#dedfd6"/></radialGradient><path d="M68.95 31.9l-.35.4-.25.6v.8q.05.45.35.45l.55-.8.1-.95q0-.6-.3-.6v.05l-.1.05" fill="url(#i)"/><path d="M61 32.5l.15.95.5 1.25q.9 1.6 2.6 1.65 3.1.15 4.5-2.3l.05-.15.4-2.1.55.15-.7 2.55q-.85 1.45-2.5 2.05l-.2.05-1.75.3q-1.75-.1-2.55-.95-.75-.85-1.1-1.65l-.45-1.15-.25-.5.75-.15" fill="#a4a892"/><linearGradient id="j" gradientUnits="userSpaceOnUse" gradientTransform="matrix(-.00696 0 0 .00192 65.35 31)" x1="-819.2" x2="819.2"><stop offset="0" stop-color="#a4a892"/><stop offset=".463" stop-color="#4f5041"/><stop offset="1" stop-color="#a4a892"/></linearGradient><path d="M69.15 31.35q-2.1-2.15-6.9-.8-1.3.45-1.25 1.9v.05l-.75.15-.45-.65v-.65q.3-.25.95-.55l.2-.15q.6-.55 2-.9l3.65-.15 2.25.8h.05l.45.4.35.3.4.15h.55v.4h-.55l-.25-.05h-.05v.05l-.05.25v.05l-.55-.15-.05-.45" fill="url(#j)"/><linearGradient id="k" gradientUnits="userSpaceOnUse" gradientTransform="matrix(.00116 .0018 -.00069 .00044 61.8 34.4)" x1="-819.2" x2="819.2"><stop offset="0" stop-color="#a4a892"/><stop offset=".463" stop-color="#fbfbfb"/><stop offset="1" stop-color="#a4a892"/></linearGradient><path d="M63.75 36.85l.2-.25q-2.75-1-3.1-3.9l-.3.2q.55 3 3.2 3.95" fill="url(#k)"/><linearGradient id="l" gradientUnits="userSpaceOnUse" gradientTransform="matrix(-.00212 -.00024 .0001 -.0008 67.25 30.6)" x1="-819.2" x2="819.2"><stop offset="0" stop-color="#a4a892"/><stop offset=".463" stop-color="#fbfbfb"/><stop offset="1" stop-color="#a4a892"/></linearGradient><path d="M64.1 30q3.55-.45 5.15 1.25l.25-.25q-2.25-1.8-5.4-1.3v.3" fill="url(#l)"/><linearGradient id="m" gradientUnits="userSpaceOnUse" gradientTransform="matrix(-.00185 .0011 -.00044 -.00067 63.2 30.55)" x1="-819.2" x2="819.2"><stop offset="0" stop-color="#a4a892"/><stop offset=".463" stop-color="#fbfbfb"/><stop offset="1" stop-color="#a4a892"/></linearGradient><path d="M60.7 31l.15.6q.55-1.5 4.35-1.7v-.25q-3.1 0-4.5 1.35" fill="url(#m)"/><path d="M60.55 31.55h-.75q.25.7.5.6.3-.1.3-.6h-.05l.1-.05-.1.05" fill="#545738"/><linearGradient id="n" gradientUnits="userSpaceOnUse" gradientTransform="matrix(-.0006 .00107 .00056 .0003 60.45 31.4)" x1="-819.2" x2="819.2"><stop offset="0" stop-color="#a4a892"/><stop offset=".463" stop-color="#fbfbfb"/><stop offset="1" stop-color="#a4a892"/></linearGradient><path d="M60.55 31.55q-.05-.45-.4-.25l-.3.25h.7" fill="url(#n)"/><linearGradient id="o" gradientUnits="userSpaceOnUse" gradientTransform="matrix(-.00433 .00075 .00027 .00064 64.95 36.05)" x1="-819.2" x2="819.2"><stop offset="0" stop-color="#a4a892"/><stop offset=".463" stop-color="#fbfbfb"/><stop offset="1" stop-color="#a4a892"/></linearGradient><path d="M61.95 35.35l-.25.15q2.65 2.4 6.65-.1l-.2-.15q-3.8 2.35-6.2.1" fill="url(#o)"/><linearGradient id="p" gradientUnits="userSpaceOnUse" gradientTransform="matrix(-.00052 .00116 .0005 .00014 68.75 33.45)" x1="-819.2" x2="819.2"><stop offset="0" stop-color="#a4a892"/><stop offset=".463" stop-color="#fbfbfb"/><stop offset="1" stop-color="#a4a892"/></linearGradient><path d="M69.55 32.2l-.2.05Q69.2 33.8 68 35.2l.15.15q1.1-1.1 1.4-3.15" fill="url(#p)"/></g></svg>

<?xml version="1.0" encoding="utf-8"?>
<svg version="1.1" id="Layer_1"
xmlns="http://www.w3.org/2000/svg"
xmlns:xlink="http://www.w3.org/1999/xlink"
xmlns:author="http://www.sothink.com"
width="22px" height="8px"
xml:space="preserve">
<g id="632" transform="matrix(1, 0, 0, 1, -59.8, -29.5)">
<radialGradient
id="RadialGradID_5051" gradientUnits="userSpaceOnUse" gradientTransform="matrix(-0.000518799, 0.000137329, 0.000350952, 0.00131226, 71.85, 32.95)" spreadMethod ="pad" cx="0" cy="0" r="819.2" fx="0" fy="0" >
<stop  offset="0"  style="stop-color:#919688;stop-opacity:1" />
<stop  offset="1"  style="stop-color:#DEDFD6;stop-opacity:1" />
</radialGradient>
<path style="fill:url(#RadialGradID_5051) " d="M71.85,31.9L72.2 32.3L72.45 32.9L72.45 33.7L72.1 34.15L71.55 33.35L71.45 32.4Q71.45 31.8 71.75 31.8L71.75 31.85L71.85 31.9" />
<path style="fill:#A4A892;fill-opacity:1" d="M72.05,33.9L72.1 34.05Q73.45 36.5 76.55 36.35Q78.25 36.3 79.15 34.7L79.7 33.45L79.85 32.5L80.6 32.65L80.35 33.15L79.9 34.3L78.75 35.95Q77.95 36.8 76.25 36.9L74.45 36.6L74.25 36.55Q72.6 35.95 71.8 34.5Q71.3 33.35 71.1 31.95L71.6 31.8Q71.6 32.6 72.05 33.9" />
<linearGradient
id="LinearGradID_5052" gradientUnits="userSpaceOnUse" gradientTransform="matrix(0.00695801, 0, 0, 0.00192261, 75.45, 31)" spreadMethod ="pad" x1="-819.2" y1="0" x2="819.2" y2="0" >
<stop  offset="0" style="stop-color:#A4A892;stop-opacity:1" />
<stop  offset="0.462745" style="stop-color:#4F5041;stop-opacity:1" />
<stop  offset="1" style="stop-color:#A4A892;stop-opacity:1" />
</linearGradient>
<path style="fill:url(#LinearGradID_5052) " d="M79.85,32.5L79.85 32.45Q79.85 31 78.6 30.55Q73.75 29.2 71.65 31.35L71.6 31.8L71.1 31.95L71.1 31.9L71.05 31.65L71 31.6L70.7 31.65L70.2 31.65L70.2 31.25L70.7 31.25L71.15 31.1L71.5 30.8L71.95 30.4Q73.1 29.85 74.25 29.6L77.85 29.75Q79.25 30.1 79.85 30.65L80.05 30.8L81.05 31.35L81.05 32L80.6 32.65L79.85 32.5" />
<linearGradient
id="LinearGradID_5053" gradientUnits="userSpaceOnUse" gradientTransform="matrix(-0.00115967, 0.00180054, 0.000686646, 0.000442505, 79, 34.4)" spreadMethod ="pad" x1="-819.2" y1="0" x2="819.2" y2="0" >
<stop  offset="0" style="stop-color:#A4A892;stop-opacity:1" />
<stop  offset="0.462745" style="stop-color:#FBFBFB;stop-opacity:1" />
<stop  offset="1" style="stop-color:#A4A892;stop-opacity:1" />
</linearGradient>
<path style="fill:url(#LinearGradID_5053) " d="M77.05,36.85L76.85 36.6Q79.6 35.6 79.95 32.7L80.25 32.9Q79.7 35.9 77.05 36.85" />
<linearGradient
id="LinearGradID_5054" gradientUnits="userSpaceOnUse" gradientTransform="matrix(0.00212097, -0.000244141, -0.000106812, -0.000808716, 73.55, 30.6)" spreadMethod ="pad" x1="-819.2" y1="0" x2="819.2" y2="0" >
<stop  offset="0" style="stop-color:#A4A892;stop-opacity:1" />
<stop  offset="0.462745" style="stop-color:#FBFBFB;stop-opacity:1" />
<stop  offset="1" style="stop-color:#A4A892;stop-opacity:1" />
</linearGradient>
<path style="fill:url(#LinearGradID_5054) " d="M76.7,30Q73.15 29.55 71.55 31.25L71.3 31Q73.55 29.2 76.7 29.7L76.7 30" />
<linearGradient
id="LinearGradID_5055" gradientUnits="userSpaceOnUse" gradientTransform="matrix(0.00184631, 0.00109863, 0.000442505, -0.000671387, 77.6, 30.55)" spreadMethod ="pad" x1="-819.2" y1="0" x2="819.2" y2="0" >
<stop  offset="0" style="stop-color:#A4A892;stop-opacity:1" />
<stop  offset="0.462745" style="stop-color:#FBFBFB;stop-opacity:1" />
<stop  offset="1" style="stop-color:#A4A892;stop-opacity:1" />
</linearGradient>
<path style="fill:url(#LinearGradID_5055) " d="M80.1,31L79.95 31.6Q79.4 30.1 75.6 29.9L75.6 29.65Q78.7 29.65 80.1 31" />
<path style="fill:#545738;fill-opacity:1" d="M80.15,31.5L80.25 31.55L80.15 31.5M80.95,31.55L81 31.55Q80.75 32.25 80.5 32.15Q80.2 32.05 80.2 31.55L80.25 31.55L80.95 31.55" />
<linearGradient
id="LinearGradID_5056" gradientUnits="userSpaceOnUse" gradientTransform="matrix(0.000595093, 0.00106812, -0.000564575, 0.000305176, 80.35, 31.4)" spreadMethod ="pad" x1="-819.2" y1="0" x2="819.2" y2="0" >
<stop  offset="0" style="stop-color:#A4A892;stop-opacity:1" />
<stop  offset="0.462745" style="stop-color:#FBFBFB;stop-opacity:1" />
<stop  offset="1" style="stop-color:#A4A892;stop-opacity:1" />
</linearGradient>
<path style="fill:url(#LinearGradID_5056) " d="M80.95,31.55L80.25 31.55Q80.3 31.1 80.65 31.3Q81 31.45 80.95 31.55" />
<linearGradient
id="LinearGradID_5057" gradientUnits="userSpaceOnUse" gradientTransform="matrix(0.0043335, 0.000747681, -0.000274658, 0.000640869, 75.85, 36.05)" spreadMethod ="pad" x1="-819.2" y1="0" x2="819.2" y2="0" >
<stop  offset="0" style="stop-color:#A4A892;stop-opacity:1" />
<stop  offset="0.462745" style="stop-color:#FBFBFB;stop-opacity:1" />
<stop  offset="1" style="stop-color:#A4A892;stop-opacity:1" />
</linearGradient>
<path style="fill:url(#LinearGradID_5057) " d="M78.85,35.35L79.1 35.5Q76.45 37.9 72.45 35.4L72.65 35.25Q76.45 37.6 78.85 35.35" />
<linearGradient
id="LinearGradID_5058" gradientUnits="userSpaceOnUse" gradientTransform="matrix(0.000518799, 0.00115967, -0.00050354, 0.000137329, 72.05, 33.45)" spreadMethod ="pad" x1="-819.2" y1="0" x2="819.2" y2="0" >
<stop  offset="0" style="stop-color:#A4A892;stop-opacity:1" />
<stop  offset="0.462745" style="stop-color:#FBFBFB;stop-opacity:1" />
<stop  offset="1" style="stop-color:#A4A892;stop-opacity:1" />
</linearGradient>
<path style="fill:url(#LinearGradID_5058) " d="M71.25,32.2L71.45 32.25Q71.6 33.8 72.8 35.2L72.65 35.35Q71.55 34.25 71.25 32.2" />
<radialGradient
id="RadialGradID_5059" gradientUnits="userSpaceOnUse" gradientTransform="matrix(0.000518799, 0.000137329, -0.000350952, 0.00131226, 68.95, 32.95)" spreadMethod ="pad" cx="0" cy="0" r="819.2" fx="0" fy="0" >
<stop  offset="0"  style="stop-color:#919688;stop-opacity:1" />
<stop  offset="1"  style="stop-color:#DEDFD6;stop-opacity:1" />
</radialGradient>
<path style="fill:url(#RadialGradID_5059) " d="M68.95,31.9L68.6 32.3L68.35 32.9L68.35 33.7Q68.4 34.15 68.7 34.15L69.25 33.35L69.35 32.4Q69.35 31.8 69.05 31.8L69.05 31.85L68.95 31.9" />
<path style="fill:#A4A892;fill-opacity:1" d="M61,32.5L61.15 33.45L61.65 34.7Q62.55 36.3 64.25 36.35Q67.35 36.5 68.75 34.05L68.8 33.9L69.2 31.8L69.75 31.95L69.05 34.5Q68.2 35.95 66.55 36.55L66.35 36.6L64.6 36.9Q62.85 36.8 62.05 35.95Q61.3 35.1 60.95 34.3L60.5 33.15L60.25 32.65L61 32.5" />
<linearGradient
id="LinearGradID_5060" gradientUnits="userSpaceOnUse" gradientTransform="matrix(-0.00695801, 0, 0, 0.00192261, 65.35, 31)" spreadMethod ="pad" x1="-819.2" y1="0" x2="819.2" y2="0" >
<stop  offset="0" style="stop-color:#A4A892;stop-opacity:1" />
<stop  offset="0.462745" style="stop-color:#4F5041;stop-opacity:1" />
<stop  offset="1" style="stop-color:#A4A892;stop-opacity:1" />
</linearGradient>
<path style="fill:url(#LinearGradID_5060) " d="M69.15,31.35Q67.05 29.2 62.25 30.55Q60.95 31 61 32.45L61 32.5L60.25 32.65L59.8 32L59.8 31.35Q60.1 31.1 60.75 30.8L60.95 30.65Q61.55 30.1 62.95 29.75L66.6 29.6L68.85 30.4L68.9 30.4L69.35 30.8L69.7 31.1L70.1 31.25L70.6 31.25L70.65 31.25L70.65 31.65L70.1 31.65L69.85 31.6L69.8 31.6L69.8 31.65L69.75 31.9L69.75 31.95L69.2 31.8L69.15 31.35" />
<linearGradient
id="LinearGradID_5061" gradientUnits="userSpaceOnUse" gradientTransform="matrix(0.00115967, 0.00180054, -0.000686646, 0.000442505, 61.8, 34.4)" spreadMethod ="pad" x1="-819.2" y1="0" x2="819.2" y2="0" >
<stop  offset="0" style="stop-color:#A4A892;stop-opacity:1" />
<stop  offset="0.462745" style="stop-color:#FBFBFB;stop-opacity:1" />
<stop  offset="1" style="stop-color:#A4A892;stop-opacity:1" />
</linearGradient>
<path style="fill:url(#LinearGradID_5061) " d="M63.75,36.85L63.95 36.6Q61.2 35.6 60.85 32.7L60.55 32.9Q61.1 35.9 63.75 36.85" />
<linearGradient
id="LinearGradID_5062" gradientUnits="userSpaceOnUse" gradientTransform="matrix(-0.00212097, -0.000244141, 0.000106812, -0.000808716, 67.25, 30.6)" spreadMethod ="pad" x1="-819.2" y1="0" x2="819.2" y2="0" >
<stop  offset="0" style="stop-color:#A4A892;stop-opacity:1" />
<stop  offset="0.462745" style="stop-color:#FBFBFB;stop-opacity:1" />
<stop  offset="1" style="stop-color:#A4A892;stop-opacity:1" />
</linearGradient>
<path style="fill:url(#LinearGradID_5062) " d="M64.1,30Q67.65 29.55 69.25 31.25L69.5 31Q67.25 29.2 64.1 29.7L64.1 30" />
<linearGradient
id="LinearGradID_5063" gradientUnits="userSpaceOnUse" gradientTransform="matrix(-0.00184631, 0.00109863, -0.000442505, -0.000671387, 63.2, 30.55)" spreadMethod ="pad" x1="-819.2" y1="0" x2="819.2" y2="0" >
<stop  offset="0" style="stop-color:#A4A892;stop-opacity:1" />
<stop  offset="0.462745" style="stop-color:#FBFBFB;stop-opacity:1" />
<stop  offset="1" style="stop-color:#A4A892;stop-opacity:1" />
</linearGradient>
<path style="fill:url(#LinearGradID_5063) " d="M60.7,31L60.85 31.6Q61.4 30.1 65.2 29.9L65.2 29.65Q62.1 29.65 60.7 31" />
<path style="fill:#545738;fill-opacity:1" d="M60.55,31.55L59.85 31.55L59.8 31.55Q60.05 32.25 60.3 32.15Q60.6 32.05 60.6 31.55L60.55 31.55L60.65 31.5L60.55 31.55" />
<linearGradient
id="LinearGradID_5064" gradientUnits="userSpaceOnUse" gradientTransform="matrix(-0.000595093, 0.00106812, 0.000564575, 0.000305176, 60.45, 31.4)" spreadMethod ="pad" x1="-819.2" y1="0" x2="819.2" y2="0" >
<stop  offset="0" style="stop-color:#A4A892;stop-opacity:1" />
<stop  offset="0.462745" style="stop-color:#FBFBFB;stop-opacity:1" />
<stop  offset="1" style="stop-color:#A4A892;stop-opacity:1" />
</linearGradient>
<path style="fill:url(#LinearGradID_5064) " d="M60.55,31.55Q60.5 31.1 60.15 31.3L59.85 31.55L60.55 31.55" />
<linearGradient
id="LinearGradID_5065" gradientUnits="userSpaceOnUse" gradientTransform="matrix(-0.0043335, 0.000747681, 0.000274658, 0.000640869, 64.95, 36.05)" spreadMethod ="pad" x1="-819.2" y1="0" x2="819.2" y2="0" >
<stop  offset="0" style="stop-color:#A4A892;stop-opacity:1" />
<stop  offset="0.462745" style="stop-color:#FBFBFB;stop-opacity:1" />
<stop  offset="1" style="stop-color:#A4A892;stop-opacity:1" />
</linearGradient>
<path style="fill:url(#LinearGradID_5065) " d="M61.95,35.35L61.7 35.5Q64.35 37.9 68.35 35.4L68.15 35.25Q64.35 37.6 61.95 35.35" />
<linearGradient
id="LinearGradID_5066" gradientUnits="userSpaceOnUse" gradientTransform="matrix(-0.000518799, 0.00115967, 0.00050354, 0.000137329, 68.75, 33.45)" spreadMethod ="pad" x1="-819.2" y1="0" x2="819.2" y2="0" >
<stop  offset="0" style="stop-color:#A4A892;stop-opacity:1" />
<stop  offset="0.462745" style="stop-color:#FBFBFB;stop-opacity:1" />
<stop  offset="1" style="stop-color:#A4A892;stop-opacity:1" />
</linearGradient>
<path style="fill:url(#LinearGradID_5066) " d="M69.55,32.2L69.35 32.25Q69.2 33.8 68 35.2L68.15 35.35Q69.25 34.25 69.55 32.2" />
</g>
</svg>
